icons/Device/server-line.svg

<svg viewBox="0 0 24 24" xmlns="http://www.w3.org/2000/svg"><path d="M5 11H19V5H5V11ZM21 4V20C21 20.5523 20.5523 21 20 21H4C3.44772 21 3 20.5523 3 20V4C3 3.44772 3.44772 3 4 3H20C20.5523 3 21 3.44772 21 4ZM19 13H5V19H19V13ZM7 15H10V17H7V15ZM7 7H10V9H7V7Z"/></svg>

<svg xmlns="http://www.w3.org/2000/svg" viewBox="0 0 24 24">
    <g>
        <path fill="none" d="M0 0h24v24H0z"/>
        <path d="M5 11h14V5H5v6zm16-7v16a1 1 0 0 1-1 1H4a1 1 0 0 1-1-1V4a1 1 0 0 1 1-1h16a1 1 0 0 1 1 1zm-2 9H5v6h14v-6zM7 15h3v2H7v-2zm0-8h3v2H7V7z"/>
    </g>
</svg>
